svg/black/dash.svg

<svg xmlns="http://www.w3.org/2000/svg" width="32" height="32" viewBox="0 0 32 32">
  <path fill-rule="evenodd" d="M16,32 C7.163444,32 0,24.836556 0,16 C0,7.163444 7.163444,0 16,0 C24.836556,0 32,7.163444 32,16 C32,24.836556 24.836556,32 16,32 Z M6.38095238,14.6857143 L5.37142857,17.6380952 L13.1238095,17.6380952 L14.1142857,14.6857143 L6.38095238,14.6857143 Z M9.98095238,9.79047619 L8.97142857,12.9714286 L22.0190476,12.9714286 L26.5714286,12.9714286 C26.5714286,12.9714286 27.4666667,9.79047619 24.3238095,9.79047619 C21.1809524,9.79047619 9.98095238,9.79047619 9.98095238,9.79047619 Z M5.86666667,22.5333333 C5.86666667,22.5333333 17.2952381,22.5333333 20.2857143,22.5333333 C23.2761905,22.5333333 24.5333333,19.352381 24.5333333,19.352381 L19.9238095,19.352381 L6.8952381,19.352381 L5.86666667,22.5333333 Z M22.0190476,12.9714286 L19.9619048,19.352381 L24.5333333,19.352381 L26.5714286,12.9714286 L22.0190476,12.9714286 Z"/>
</svg>

<svg xmlns="http://www.w3.org/2000/svg" width="32" height="32"><path fill-rule="evenodd" d="M16 32C7.163 32 0 24.837 0 16S7.163 0 16 0s16 7.163 16 16-7.163 16-16 16zM6.381 14.686l-1.01 2.952h7.753l.99-2.952H6.381zm3.6-4.896l-1.01 3.181h17.6s.896-3.18-2.247-3.18H9.98zM5.867 22.533h14.419c2.99 0 4.247-3.18 4.247-3.18H6.895l-1.028 3.18zm16.152-9.562l-2.057 6.381h4.571l2.038-6.38H22.02z"/></svg>
